symbols/web/folder_copy/materialsymbolssharp/folder_copy_wght100grad200_48px.svg

<svg xmlns="http://www.w3.org/2000/svg" height="48" width="48"><path d="M3.8 39.65V17.7h1.75v20.2H38.3v1.75Zm5.45-5.45V5.3H24l2.35 2.35H44.2V34.2ZM11 32.7h31.45V9.4h-16.8L23.3 7.05H11Zm0 0V7.05 32.7Z"/></svg>

<svg xmlns="http://www.w3.org/2000/svg" height="48" width="48"><path d="M3.8 39.65V17.7H5.55V37.9H38.3V39.65ZM9.25 34.2V5.3H24L26.35 7.65H44.2V34.2ZM11 32.7H42.45V9.4H25.65L23.3 7.05H11ZM11 32.7V7.05V9.4V32.7Z"/></svg>
